src/assets/svg/iconThree.svg

<svg width="206" height="206" viewBox="0 0 206 206" fill="none" xmlns="http://www.w3.org/2000/svg">
<g opacity="0.8">
<path fill-rule="evenodd" clip-rule="evenodd" d="M31.9292 92.6909C76.1673 71.7595 105.666 57.9603 120.426 51.2932C162.569 32.2572 171.325 28.9504 177.033 28.8413C178.288 28.8172 181.095 29.1551 182.913 30.7573C184.449 32.1101 184.871 33.9376 185.073 35.2203C185.275 36.5029 185.527 39.4248 185.327 41.7079C183.043 67.7667 173.162 131.004 168.134 160.191C166.007 172.541 161.819 176.681 157.764 177.087C148.951 177.967 142.26 170.762 133.724 164.686C120.368 155.178 112.823 149.259 99.8589 139.981C84.8765 129.259 94.589 123.366 103.127 113.735C105.362 111.214 144.189 72.8603 144.941 69.381C145.035 68.9459 145.122 67.3238 144.235 66.4674C143.348 65.6109 142.038 65.9038 141.093 66.1367C139.753 66.4669 118.417 81.7822 77.0842 112.083C71.0279 116.599 65.5424 118.799 60.6275 118.684C55.2093 118.557 44.7868 115.357 37.0387 112.622C27.5354 109.267 19.9823 107.493 20.64 101.796C20.9826 98.8282 24.7457 95.7932 31.9292 92.6909Z" fill="#748BFF"/>
</g>
</svg>

<svg xmlns="http://www.w3.org/2000/svg" width="206" height="206" fill="none"><path fill="#748BFF" fill-rule="evenodd" d="M31.93 92.69c44.237-20.93 73.736-34.73 88.496-41.397 42.143-19.036 50.899-22.343 56.607-22.452 1.255-.024 4.062.314 5.88 1.916 1.536 1.353 1.958 3.18 2.16 4.463.202 1.283.454 4.205.254 6.488-2.284 26.059-12.165 89.296-17.193 118.483-2.127 12.35-6.315 16.49-10.37 16.896-8.813.88-15.504-6.325-24.04-12.401-13.356-9.508-20.901-15.427-33.865-24.705-14.983-10.722-5.27-16.615 3.268-26.246 2.235-2.521 41.062-40.875 41.814-44.354.094-.435.181-2.057-.706-2.914-.887-.856-2.197-.563-3.142-.33-1.34.33-22.676 15.645-64.009 45.946-6.056 4.516-11.542 6.716-16.457 6.601-5.418-.127-15.84-3.327-23.588-6.062-9.504-3.355-17.057-5.129-16.399-10.826.343-2.968 4.106-6.003 11.29-9.105Z" clip-rule="evenodd" opacity=".8"/></svg>
